X: 31823
T: Pattern Day, The
R: jig
M: 6/8
K: Amajor
|:EAA AFE|FAA Ace|fed c3|cBA F2G|
ABA AFE|FAA Ace|fga ecb|1 cAA A2F:|2 cAA A2B||
|:cee ecA|cea e3|fed c3|cBA F2G|ABA AFE|
FAA Ace|fga ecb|1 cAA A2B:|2 cAA A3||

